qtOgitor/res/icons/fullscreen_super.svg

<?xml version="1.0" encoding="UTF-8" standalone="no"?>
<!-- Created with Inkscape (http://www.inkscape.org/) -->
<svg
   xmlns:dc="http://purl.org/dc/elements/1.1/"
   xmlns:cc="http://creativecommons.org/ns#"
   xmlns:rdf="http://www.w3.org/1999/02/22-rdf-syntax-ns#"
   xmlns:svg="http://www.w3.org/2000/svg"
   xmlns="http://www.w3.org/2000/svg"
   xmlns:xlink="http://www.w3.org/1999/xlink"
   xmlns:sodipodi="http://sodipodi.sourceforge.net/DTD/sodipodi-0.dtd"
   xmlns:inkscape="http://www.inkscape.org/namespaces/inkscape"
   inkscape:export-ydpi="90.000000"
   inkscape:export-xdpi="90.000000"
   inkscape:export-filename="/home/jimmac/Desktop/wi-fi.png"
   width="48px"
   height="48px"
   id="svg11300"
   sodipodi:version="0.32"
   inkscape:version="0.46"
   sodipodi:docbase="/home/jimmac/src/cvs/tango-icon-theme/scalable/actions"
   sodipodi:docname="fullscreen_super.svg"
   inkscape:output_extension="org.inkscape.output.svg.inkscape">
  <defs
     id="defs3">
    <inkscape:perspective
       sodipodi:type="inkscape:persp3d"
       inkscape:vp_x="0 : 24 : 1"
       inkscape:vp_y="0 : 1000 : 0"
       inkscape:vp_z="48 : 24 : 1"
       inkscape:persp3d-origin="24 : 16 : 1"
       id="perspective73" />
    <radialGradient
       inkscape:collect="always"
       xlink:href="#linearGradient5060"
       id="radialGradient5031"
       gradientUnits="userSpaceOnUse"
       gradientTransform="matrix(-2.774389,0,0,1.969706,112.7623,-872.8854)"
       cx="605.71429"
       cy="486.64789"
       fx="605.71429"
       fy="486.64789"
       r="117.14286" />
    <linearGradient
       inkscape:collect="always"
       id="linearGradient5060">
      <stop
         style="stop-color:black;stop-opacity:1;"
         offset="0"
         id="stop5062" />
      <stop
         style="stop-color:black;stop-opacity:0;"
         offset="1"
         id="stop5064" />
    </linearGradient>
    <radialGradient
       inkscape:collect="always"
       xlink:href="#linearGradient5060"
       id="radialGradient5029"
       gradientUnits="userSpaceOnUse"
       gradientTransform="matrix(2.774389,0,0,1.969706,-1891.633,-872.8854)"
       cx="605.71429"
       cy="486.64789"
       fx="605.71429"
       fy="486.64789"
       r="117.14286" />
    <linearGradient
       id="linearGradient5048">
      <stop
         style="stop-color:black;stop-opacity:0;"
         offset="0"
         id="stop5050" />
      <stop
         id="stop5056"
         offset="0.5"
         style="stop-color:black;stop-opacity:1;" />
      <stop
         style="stop-color:black;stop-opacity:0;"
         offset="1"
         id="stop5052" />
    </linearGradient>
    <linearGradient
       inkscape:collect="always"
       xlink:href="#linearGradient5048"
       id="linearGradient5027"
       gradientUnits="userSpaceOnUse"
       gradientTransform="matrix(2.774389,0,0,1.969706,-1892.179,-872.8854)"
       x1="302.85715"
       y1="366.64789"
       x2="302.85715"
       y2="609.50507" />
    <linearGradient
       inkscape:collect="always"
       id="linearGradient3284">
      <stop
         style="stop-color:#000000;stop-opacity:1;"
         offset="0"
         id="stop3286" />
      <stop
         style="stop-color:#000000;stop-opacity:0;"
         offset="1"
         id="stop3288" />
    </linearGradient>
    <linearGradient
       id="linearGradient3260">
      <stop
         style="stop-color:#e61724;stop-opacity:1;"
         offset="0"
         id="stop3262" />
      <stop
         style="stop-color:#204a87;stop-opacity:0;"
         offset="1"
         id="stop3264" />
    </linearGradient>
    <linearGradient
       id="linearGradient3239">
      <stop
         style="stop-color:#e3eded;stop-opacity:1;"
         offset="0"
         id="stop3241" />
      <stop
         style="stop-color:#f5f5f5;stop-opacity:1;"
         offset="1"
         id="stop3243" />
    </linearGradient>
    <linearGradient
       id="linearGradient11520">
      <stop
         id="stop11522"
         offset="0.0000000"
         style="stop-color:#ffffff;stop-opacity:1.0000000;" />
      <stop
         id="stop11524"
         offset="1.0000000"
         style="stop-color:#dcdcdc;stop-opacity:1.0000000;" />
    </linearGradient>
    <linearGradient
       id="linearGradient11508"
       inkscape:collect="always">
      <stop
         id="stop11510"
         offset="0"
         style="stop-color:#000000;stop-opacity:1;" />
      <stop
         id="stop11512"
         offset="1"
         style="stop-color:#000000;stop-opacity:0;" />
    </linearGradient>
    <linearGradient
       id="linearGradient11494"
       inkscape:collect="always">
      <stop
         id="stop11496"
         offset="0"
         style="stop-color:#ef2929;stop-opacity:1;" />
      <stop
         id="stop11498"
         offset="1"
         style="stop-color:#ef2929;stop-opacity:0;" />
    </linearGradient>
    <linearGradient
       id="linearGradient11415">
      <stop
         id="stop11417"
         offset="0.0000000"
         style="stop-color:#204a87;stop-opacity:0.0000000;" />
      <stop
         style="stop-color:#204a87;stop-opacity:1.0000000;"
         offset="0.50000000"
         id="stop11423" />
      <stop
         id="stop11419"
         offset="1"
         style="stop-color:#204a87;stop-opacity:0;" />
    </linearGradient>
    <linearGradient
       id="linearGradient11399"
       inkscape:collect="always">
      <stop
         id="stop11401"
         offset="0"
         style="stop-color:#000000;stop-opacity:1;" />
      <stop
         id="stop11403"
         offset="1"
         style="stop-color:#000000;stop-opacity:0;" />
    </linearGradient>
    <linearGradient
       gradientTransform="translate(-60.28571,-0.285714)"
       y2="34.462429"
       x2="43.615788"
       y1="3.7744560"
       x1="15.828360"
       gradientUnits="userSpaceOnUse"
       id="linearGradient11425"
       xlink:href="#linearGradient11415"
       inkscape:collect="always" />
    <linearGradient
       gradientTransform="translate(-60.57143,0.000000)"
       y2="39.033859"
       x2="35.679932"
       y1="9.3458843"
       x1="9.6957054"
       gradientUnits="userSpaceOnUse"
       id="linearGradient11427"
       xlink:href="#linearGradient11415"
       inkscape:collect="always" />
    <linearGradient
       y2="33.462429"
       x2="26.758644"
       y1="19.774456"
       x1="13.267134"
       gradientTransform="translate(-60.85714,0.428571)"
       gradientUnits="userSpaceOnUse"
       id="linearGradient11439"
       xlink:href="#linearGradient11415"
       inkscape:collect="always" />
    <radialGradient
       r="8.5000000"
       fy="39.142857"
       fx="12.071428"
       cy="39.142857"
       cx="12.071428"
       gradientTransform="matrix(1.000000,0.000000,0.000000,0.487395,0.000000,20.06483)"
       gradientUnits="userSpaceOnUse"
       id="radialGradient11441"
       xlink:href="#linearGradient11399"
       inkscape:collect="always" />
    <radialGradient
       gradientTransform="matrix(1.243453,2.106784e-16,-2.106784e-16,1.243453,-6.713754,-3.742847)"
       gradientUnits="userSpaceOnUse"
       r="3.8335034"
       fy="15.048258"
       fx="27.577173"
       cy="15.048258"
       cx="27.577173"
       id="radialGradient11500"
       xlink:href="#linearGradient11494"
       inkscape:collect="always" />
    <radialGradient
       r="3.8335034"
       fy="16.049133"
       fx="27.577173"
       cy="16.049133"
       cx="27.577173"
       gradientTransform="matrix(1.243453,2.106784e-16,-2.106784e-16,1.243453,-6.713754,-3.742847)"
       gradientUnits="userSpaceOnUse"
       id="radialGradient11504"
       xlink:href="#linearGradient11494"
       inkscape:collect="always" />
    <radialGradient
       gradientUnits="userSpaceOnUse"
       gradientTransform="matrix(1.000000,0.000000,0.000000,0.338462,2.166583e-14,29.48178)"
       r="6.5659914"
       fy="44.565483"
       fx="30.203562"
       cy="44.565483"
       cx="30.203562"
       id="radialGradient11514"
       xlink:href="#linearGradient11508"
       inkscape:collect="always" />
    <radialGradient
       gradientTransform="matrix(1.995058,-1.651527e-32,0.000000,1.995058,-24.32488,-35.70087)"
       gradientUnits="userSpaceOnUse"
       r="20.530962"
       fy="35.878170"
       fx="24.445690"
       cy="35.878170"
       cx="24.445690"
       id="radialGradient11526"
       xlink:href="#linearGradient11520"
       inkscape:collect="always" />
    <radialGradient
       r="6.5659914"
       fy="44.565483"
       fx="30.203562"
       cy="44.565483"
       cx="30.203562"
       gradientTransform="matrix(1.000000,0.000000,0.000000,0.338462,3.185827e-15,29.48178)"
       gradientUnits="userSpaceOnUse"
       id="radialGradient11532"
       xlink:href="#linearGradient11508"
       inkscape:collect="always" />
    <radialGradient
       inkscape:collect="always"
       xlink:href="#linearGradient11508"
       id="radialGradient1348"
       gradientUnits="userSpaceOnUse"
       gradientTransform="matrix(1.000000,0.000000,0.000000,0.338462,-1.353344e-14,29.48178)"
       cx="30.203562"
       cy="44.565483"
       fx="30.203562"
       fy="44.565483"
       r="6.5659914" />
    <radialGradient
       inkscape:collect="always"
       xlink:href="#linearGradient11520"
       id="radialGradient1350"
       gradientUnits="userSpaceOnUse"
       gradientTransform="matrix(1.995058,-1.651527e-32,0.000000,1.995058,-24.32488,-35.70087)"
       cx="24.445690"
       cy="35.878170"
       fx="24.445690"
       fy="35.878170"
       r="20.530962" />
    <radialGradient
       inkscape:collect="always"
       xlink:href="#linearGradient11494"
       id="radialGradient1352"
       gradientUnits="userSpaceOnUse"
       gradientTransform="matrix(1.243453,2.106784e-16,-2.106784e-16,1.243453,-6.713754,-3.742847)"
       cx="27.577173"
       cy="16.049133"
       fx="27.577173"
       fy="16.049133"
       r="3.8335034" />
    <radialGradient
       inkscape:collect="always"
       xlink:href="#linearGradient11494"
       id="radialGradient1354"
       gradientUnits="userSpaceOnUse"
       gradientTransform="matrix(1.243453,2.106784e-16,-2.106784e-16,1.243453,-6.713754,-3.742847)"
       cx="27.577173"
       cy="15.048258"
       fx="27.577173"
       fy="15.048258"
       r="3.8335034" />
    <radialGradient
       inkscape:collect="always"
       xlink:href="#linearGradient11508"
       id="radialGradient1356"
       gradientUnits="userSpaceOnUse"
       gradientTransform="matrix(1.000000,0.000000,0.000000,0.338462,2.220359e-14,29.48178)"
       cx="30.203562"
       cy="44.565483"
       fx="30.203562"
       fy="44.565483"
       r="6.5659914" />
    <radialGradient
       inkscape:collect="always"
       xlink:href="#linearGradient11520"
       id="radialGradient1366"
       gradientUnits="userSpaceOnUse"
       gradientTransform="matrix(2.049266,-1.696401e-32,0.000000,2.049266,-25.65002,-37.31089)"
       cx="24.445690"
       cy="35.878170"
       fx="24.445690"
       fy="35.878170"
       r="20.530962" />
    <linearGradient
       inkscape:collect="always"
       xlink:href="#linearGradient3260"
       id="linearGradient3266"
       x1="12.363961"
       y1="11.394304"
       x2="18.22703"
       y2="17.58149"
       gradientUnits="userSpaceOnUse" />
    <linearGradient
       inkscape:collect="always"
       xlink:href="#linearGradient3260"
       id="linearGradient3270"
       gradientUnits="userSpaceOnUse"
       x1="12.363961"
       y1="11.394304"
       x2="18.22703"
       y2="17.58149"
       gradientTransform="matrix(-1,0,0,1,49,0)" />
    <linearGradient
       inkscape:collect="always"
       xlink:href="#linearGradient3260"
       id="linearGradient3278"
       gradientUnits="userSpaceOnUse"
       x1="12.363961"
       y1="11.394304"
       x2="18.22703"
       y2="17.58149"
       gradientTransform="matrix(1,0,0,-1,0,47.03125)" />
    <linearGradient
       inkscape:collect="always"
       xlink:href="#linearGradient3260"
       id="linearGradient3280"
       gradientUnits="userSpaceOnUse"
       gradientTransform="matrix(-1,0,0,-1,49,47.03125)"
       x1="12.363961"
       y1="11.394304"
       x2="18.22703"
       y2="17.58149" />
    <radialGradient
       inkscape:collect="always"
       xlink:href="#linearGradient3284"
       id="radialGradient3290"
       cx="25.455845"
       cy="43.403805"
       fx="25.455845"
       fy="43.403805"
       r="20.682873"
       gradientTransform="matrix(1,0,0,0.205128,0,34.50046)"
       gradientUnits="userSpaceOnUse" />
  </defs>
  <sodipodi:namedview
     stroke="#ef2929"
     fill="#204a87"
     id="base"
     pagecolor="#ffffff"
     bordercolor="#666666"
     borderopacity="0.25490196"
     inkscape:pageopacity="0.0"
     inkscape:pageshadow="2"
     inkscape:zoom="8"
     inkscape:cx="-14.992895"
     inkscape:cy="35.890897"
     inkscape:current-layer="layer1"
     showgrid="false"
     inkscape:grid-bbox="true"
     inkscape:document-units="px"
     inkscape:showpageshadow="false"
     inkscape:window-width="970"
     inkscape:window-height="818"
     inkscape:window-x="110"
     inkscape:window-y="145" />
  <metadata
     id="metadata4">
    <rdf:RDF>
      <cc:Work
         rdf:about="">
        <dc:format>image/svg+xml</dc:format>
        <dc:type
           rdf:resource="http://purl.org/dc/dcmitype/StillImage" />
        <dc:creator>
          <cc:Agent>
            <dc:title>Jakub Steiner</dc:title>
          </cc:Agent>
        </dc:creator>
        <dc:source>http://jimmac.musichall.cz</dc:source>
        <cc:license
           rdf:resource="http://creativecommons.org/licenses/publicdomain/" />
        <dc:title>View Fullscreen</dc:title>
      </cc:Work>
      <cc:License
         rdf:about="http://creativecommons.org/licenses/publicdomain/">
        <cc:permits
           rdf:resource="http://creativecommons.org/ns#Reproduction" />
        <cc:permits
           rdf:resource="http://creativecommons.org/ns#Distribution" />
        <cc:permits
           rdf:resource="http://creativecommons.org/ns#DerivativeWorks" />
      </cc:License>
    </rdf:RDF>
  </metadata>
  <g
     id="layer1"
     inkscape:label="Layer 1"
     inkscape:groupmode="layer">
    <g
       style="display:inline"
       id="g5022"
       transform="matrix(2.312904e-2,0,0,1.485743e-2,44.96697,42.7963)">
      <rect
         y="-150.69685"
         x="-1559.2523"
         height="478.35718"
         width="1339.6335"
         id="rect4173"
         style="opacity:0.40206185;color:black;fill:url(#linearGradient5027);fill-opacity:1;fill-rule:nonzero;stroke:none;stroke-width:1;stroke-linecap:round;stroke-linejoin:miter;marker:none;marker-start:none;marker-mid:none;marker-end:none;stroke-miterlimit:4;stroke-dasharray:none;stroke-dashoffset:0;stroke-opacity:1;visibility:visible;display:inline;overflow:visible" />
      <path
         sodipodi:nodetypes="cccc"
         id="path5058"
         d="M -219.61876,-150.68038 C -219.61876,-150.68038 -219.61876,327.65041 -219.61876,327.65041 C -76.744594,328.55086 125.78146,220.48075 125.78138,88.454235 C 125.78138,-43.572302 -33.655436,-150.68036 -219.61876,-150.68038 z "
         style="opacity:0.40206185;color:black;fill:url(#radialGradient5029);fill-opacity:1;fill-rule:nonzero;stroke:none;stroke-width:1;stroke-linecap:round;stroke-linejoin:miter;marker:none;marker-start:none;marker-mid:none;marker-end:none;stroke-miterlimit:4;stroke-dasharray:none;stroke-dashoffset:0;stroke-opacity:1;visibility:visible;display:inline;overflow:visible" />
      <path
         style="opacity:0.40206185;color:black;fill:url(#radialGradient5031);fill-opacity:1;fill-rule:nonzero;stroke:none;stroke-width:1;stroke-linecap:round;stroke-linejoin:miter;marker:none;marker-start:none;marker-mid:none;marker-end:none;stroke-miterlimit:4;stroke-dasharray:none;stroke-dashoffset:0;stroke-opacity:1;visibility:visible;display:inline;overflow:visible"
         d="M -1559.2523,-150.68038 C -1559.2523,-150.68038 -1559.2523,327.65041 -1559.2523,327.65041 C -1702.1265,328.55086 -1904.6525,220.48075 -1904.6525,88.454235 C -1904.6525,-43.572302 -1745.2157,-150.68036 -1559.2523,-150.68038 z "
         id="path5018"
         sodipodi:nodetypes="cccc" />
    </g>
    <path
       sodipodi:type="inkscape:offset"
       inkscape:radius="-1.0340382"
       inkscape:original="M 5.375 2.5 C 4.3362497 2.5 3.5 3.3362496 3.5 4.375 L 3.5 42.625 C 3.5 43.66375 4.3362496 44.500001 5.375 44.5 L 43.625 44.5 C 44.66375 44.5 45.500001 43.66375 45.5 42.625 L 45.5 4.375 C 45.5 3.3362497 44.663751 2.5 43.625 2.5 L 5.375 2.5 z "
       xlink:href="#rect2354"
       style="opacity:1;color:#000000;fill:none;fill-opacity:1;fill-rule:evenodd;stroke:#ffffff;stroke-width:1;stroke-linecap:round;stroke-linejoin:round;marker:none;marker-start:none;marker-mid:none;marker-end:none;stroke-miterlimit:4;stroke-dasharray:none;stroke-dashoffset:0;stroke-opacity:1;visibility:visible;display:inline;overflow:visible"
       id="path3247"
       inkscape:href="#rect2354"
       d="M 5.375,3.53125 C 4.8912209,3.53125 4.53125,3.8912205 4.53125,4.375 L 4.53125,42.625 C 4.53125,43.108779 4.8912224,43.46875 5.375,43.46875 L 43.125,43.46875 C 43.608779,43.46875 43.96875,43.108779 43.96875,42.625 L 43.96875,4.375 C 43.96875,3.8912207 43.608779,3.53125 43.125,3.53125 L 5.375,3.53125 z " />
    <path
       style="opacity:1;color:#000000;fill:url(#linearGradient3266);fill-opacity:1.0;fill-rule:evenodd;stroke:none;stroke-width:1;stroke-linecap:round;stroke-linejoin:round;marker:none;marker-start:none;marker-mid:none;marker-end:none;stroke-miterlimit:4;stroke-dasharray:none;stroke-dashoffset:0;stroke-opacity:1;visibility:visible;display:inline;overflow:visible"
       d="M 6 5 L 6 18 L 10.03125 13.96875 L 18.03125 22.03125 L 23 17 L 15 9 L 19 5 L 6 5 z "
       id="path3251" />
    <path
       id="path3268"
       d="M 43,5 L 43,18 L 38.96875,13.96875 L 30.96875,22.03125 L 26,17 L 34,9 L 30,5 L 43,5 z "
       style="opacity:1;color:#000000;fill:url(#linearGradient3270);fill-opacity:1;fill-rule:evenodd;stroke:none;stroke-width:1;stroke-linecap:round;stroke-linejoin:round;marker:none;marker-start:none;marker-mid:none;marker-end:none;stroke-miterlimit:4;stroke-dasharray:none;stroke-dashoffset:0;stroke-opacity:1;visibility:visible;display:inline;overflow:visible" />
    <path
       id="path3274"
       d="M 6,42.03125 L 6,29.03125 L 10.03125,33.0625 L 18.03125,25 L 23,30.03125 L 15,38.03125 L 19,42.03125 L 6,42.03125 z "
       style="opacity:1;color:#000000;fill:url(#linearGradient3278);fill-opacity:1;fill-rule:evenodd;stroke:none;stroke-width:1;stroke-linecap:round;stroke-linejoin:round;marker:none;marker-start:none;marker-mid:none;marker-end:none;stroke-miterlimit:4;stroke-dasharray:none;stroke-dashoffset:0;stroke-opacity:1;visibility:visible;display:inline;overflow:visible" />
    <path
       style="opacity:1;color:#000000;fill:url(#linearGradient3280);fill-opacity:1;fill-rule:evenodd;stroke:none;stroke-width:1;stroke-linecap:round;stroke-linejoin:round;marker:none;marker-start:none;marker-mid:none;marker-end:none;stroke-miterlimit:4;stroke-dasharray:none;stroke-dashoffset:0;stroke-opacity:1;visibility:visible;display:inline;overflow:visible"
       d="M 43,42.03125 L 43,29.03125 L 38.96875,33.0625 L 30.96875,25 L 26,30.03125 L 34,38.03125 L 30,42.03125 L 43,42.03125 z "
       id="path3276" />
  </g>
</svg>

<svg xmlns="http://www.w3.org/2000/svg" viewBox="0 0 48 48" xmlns:xlink="http://www.w3.org/1999/xlink">
<defs>
<linearGradient id="linearGradient5048">
<stop offset="0" stop-opacity="0"/>
<stop offset=".5"/>
<stop offset="1" stop-opacity="0"/>
</linearGradient>
<linearGradient id="linearGradient5060">
<stop offset="0"/>
<stop offset="1" stop-opacity="0"/>
</linearGradient>
<linearGradient id="linearGradient3260">
<stop offset="0" stop-color="#e61724"/>
<stop offset="1" stop-color="#204a87" stop-opacity="0"/>
</linearGradient>
<linearGradient gradientTransform="matrix(-1 0 0 -1 49 47.03125)" xlink:href="#linearGradient3260" id="linearGradient3280" y1="11.394" x1="12.364" y2="17.581" gradientUnits="userSpaceOnUse" x2="18.227"/>
<linearGradient gradientTransform="matrix(-1 0 0 1 49 0)" xlink:href="#linearGradient3260" id="linearGradient3270" y1="11.394" x1="12.364" y2="17.581" gradientUnits="userSpaceOnUse" x2="18.227"/>
<linearGradient xlink:href="#linearGradient3260" id="linearGradient3266" y1="11.394" x1="12.364" y2="17.581" x2="18.227" gradientUnits="userSpaceOnUse"/>
<linearGradient gradientTransform="matrix(2.77439 0 0 1.96971 -1892.179 -872.8854)" xlink:href="#linearGradient5048" id="linearGradient5027" y1="366.648" y2="609.505" gradientUnits="userSpaceOnUse" x2="0"/>
<linearGradient gradientTransform="matrix(1 0 0 -1 0 47.03125)" xlink:href="#linearGradient3260" id="linearGradient3278" y1="11.394" x1="12.364" y2="17.581" gradientUnits="userSpaceOnUse" x2="18.227"/>
<radialGradient cx="605.714" cy="486.648" gradientTransform="matrix(-2.77439 0 0 1.96971 112.7623 -872.8854)" xlink:href="#linearGradient5060" id="radialGradient5031" r="117.143" gradientUnits="userSpaceOnUse"/>
<radialGradient cx="605.714" cy="486.648" gradientTransform="matrix(2.77439 0 0 1.96971 -1891.633 -872.8854)" xlink:href="#linearGradient5060" id="radialGradient5029" r="117.143" gradientUnits="userSpaceOnUse"/>
</defs>
<g color="#000">
<g transform="matrix(.02313 0 0 .01486 44.96697 42.7963)">
<path opacity=".402" fill="url(#linearGradient5027)" d="m-1559.25-150.697h1339.631v478.357h-1339.631z"/>
<path opacity=".402" fill="url(#radialGradient5029)" d="m-219.6188-150.6804c0,0 0,478.3308 0,478.3308 142.8742,.9004 345.4002-107.1697 345.4001-239.1962 0-132.0265-159.4368-239.1346-345.4001-239.1346z"/>
<path opacity=".402" fill="url(#radialGradient5031)" d="m-1559.2523-150.6804c0,0 0,478.3308 0,478.3308-142.8742,.9004-345.4002-107.1697-345.4002-239.1962 0-132.0265 159.4368-239.1346 345.4002-239.1346z"/>
</g>
<g fill-rule="evenodd">
<path fill="none" stroke="#fff" stroke-linejoin="round" stroke-linecap="round" d="m5.375,3.5312c-.4838,0-.8438,.36-.8438,.8438v38.25c0,.4838 .36,.8438 .8438,.8438h37.75c.4838,0 .8438-.36 .8438-.8438v-38.25c0-.4838-.36-.8438-.8438-.8438h-37.75z"/>
<path fill="url(#linearGradient3266)" d="m6,5v13l4.0312-4.0312 8,8.0625 4.9688-5.0312-8-8 4-4h-13z"/>
<path fill="url(#linearGradient3270)" d="m43,5v13l-4.0312-4.0312-8,8.0625-4.9688-5.0312 8-8-4-4h13z"/>
<path fill="url(#linearGradient3278)" d="m6,42.0312v-13l4.0312,4.0312 8-8.0625 4.9688,5.0312-8,8 4,4h-13z"/>
<path fill="url(#linearGradient3280)" d="m43,42.0312v-13l-4.0312,4.0312-8-8.0625-4.9688,5.0312 8,8-4,4h13z"/>
</g>
</g>
</svg>
